packages/heroicons/src/interstate/outline/arrow-right-on-rectangle.svg

<svg width="16" height="17" viewBox="0 0 16 17" fill="none" xmlns="http://www.w3.org/2000/svg">
<g clip-path="url(#clip0_1243_4871)">
<path d="M10.3393 6.5093V3.54843C10.3393 2.56729 9.54388 1.77191 8.56273 1.77191L3.82535 1.77191C2.8442 1.77191 2.04883 2.56729 2.04883 3.54843L2.04883 14.2076C2.04883 15.1887 2.8442 15.9841 3.82535 15.9841H8.56273C9.54388 15.9841 10.3393 15.1887 10.3393 14.2076V11.2467M12.7079 11.2467L15.0766 8.87799M15.0766 8.87799L12.7079 6.5093M15.0766 8.87799L5.0097 8.87799" stroke="black" stroke-width="1.5" stroke-linecap="round" stroke-linejoin="round"/>
</g>
<defs>
<clipPath id="clip0_1243_4871">
<rect width="16" height="16" fill="white" transform="translate(0 0.877991)"/>
</clipPath>
</defs>
</svg>

<svg viewBox="0 0 16 17">
  <g clip-path="url(#a)">
    <path stroke="currentColor" stroke-linecap="round" stroke-linejoin="round" stroke-width="1.5" d="M10.34 6.508V3.547c0-.981-.796-1.776-1.777-1.776H3.825c-.98 0-1.776.795-1.776 1.776v10.66c0 .98.795 1.776 1.776 1.776h4.738c.98 0 1.776-.796 1.776-1.777v-2.96m2.369 0 2.369-2.37m0 0-2.37-2.368m2.37 2.369H5.01"/>
  </g>
  <defs>
    <clipPath id="a">
      <path d="M0 0h16v16H0z" transform="translate(0 .877)"/>
    </clipPath>
  </defs>
</svg>
